X: 110
T:Spotted Pony
M:4/4
L:1/8
Q:160
C:Old Time
S:Transcribed from Laurie Lewis version by S. C.
R:Reel
K:D
|:D2 DF E-DEG|F-DFA B-AFA|B2AB d-cde|f-edB A-FEF|!
D2 DF [E2A2] EG|F-DFA [D2B2] [DB][DB]|A-FAd B-ABd|e-dBA d4:|!
d2 eA [A2f2] ((3fgf|e)dB-A BA3|D-FAd B-ABd|A-Bdf a-fed|!
[D2d2][D2d2][d2f2]ef|a-baf e-dBA|D-FAd B-ABd| ed-d4 z2:|
